icons/Document/file-edit-fill.svg

<svg viewBox="0 0 24 24" xmlns="http://www.w3.org/2000/svg"><path d="M21 15.2426V21.0082C21 21.556 20.5551 22 20.0066 22H3.9934C3.44476 22 3 21.5511 3 20.9925V9H9C9.55228 9 10 8.55228 10 8V2H20.0017C20.5531 2 21 2.45531 21 2.9918V6.75736L12.0012 15.7562L11.995 19.995L16.2414 20.0012L21 15.2426ZM21.7782 8.80761L23.1924 10.2218L15.4142 18L13.9979 17.9979L14 16.5858L21.7782 8.80761ZM3 7L8 2.00318V7H3Z"/></svg>

<svg xmlns="http://www.w3.org/2000/svg" viewBox="0 0 24 24">
    <g>
        <path fill="none" d="M0 0h24v24H0z"/>
        <path d="M21 15.243v5.765a.993.993 0 0 1-.993.992H3.993A1 1 0 0 1 3 20.993V9h6a1 1 0 0 0 1-1V2h10.002c.551 0 .998.455.998.992v3.765l-8.999 9-.006 4.238 4.246.006L21 15.243zm.778-6.435l1.414 1.414L15.414 18l-1.416-.002.002-1.412 7.778-7.778zM3 7l5-4.997V7H3z"/>
    </g>
</svg>
